icons/battery-2-charge-fill.svg

<svg viewBox="0 0 24 24" fill="currentColor" xmlns="http://www.w3.org/2000/svg">
    <path d="M9 4V3C9 2.44772 9.44772 2 10 2H14C14.5523 2 15 2.44772 15 3V4H18C18.5523 4 19 4.44772 19 5V21C19 21.5523 18.5523 22 18 22H6C5.44772 22 5 21.5523 5 21V5C5 4.44772 5.44772 4 6 4H9ZM13 12V7L8 14H11V19L16 12H13Z"/>
</svg>

<svg xmlns="http://www.w3.org/2000/svg" viewBox="0 0 24 24">
    <g>
        <path fill="none" d="M0 0h24v24H0z"/>
        <path d="M9 4V3a1 1 0 0 1 1-1h4a1 1 0 0 1 1 1v1h3a1 1 0 0 1 1 1v16a1 1 0 0 1-1 1H6a1 1 0 0 1-1-1V5a1 1 0 0 1 1-1h3zm4 8V7l-5 7h3v5l5-7h-3z"/>
    </g>
</svg>
